libs/shared/images/icons-sharp-light/nfc-signal.svg

<svg xmlns="http://www.w3.org/2000/svg" viewBox="0 0 512 512"><defs><style>.fa-secondary{opacity:.4}</style></defs><path class="fa-secondary" d="M0 32L0 480l225.8 0c2.5-22.2 7.4-43.6 14.6-64L80 416l-16 0 0-16 0-288 0-16 16 0 64 0 16 0 0 32-16 0-48 0 0 256 157.9 0c22.5-45.2 56.4-83.6 98.1-111.5L352 128l-112 0 0 82.7c18.6 6.6 32 24.4 32 45.3c0 26.5-21.5 48-48 48s-48-21.5-48-48c0-20.9 13.4-38.7 32-45.3l0-98.7 0-16 16 0 144 0 16 0 0 16 0 141.9c20.1-10 41.6-17.7 64-22.8L448 32 0 32z"/><path class="fa-primary" d="M304 512c0-114.9 93.1-208 208-208l0-48c-141.4 0-256 114.6-256 256l48 0zm144-32a32 32 0 1 0 64 0 32 32 0 1 0 -64 0zm64-80l0-48c-88.4 0-160 71.6-160 160l48 0c0-61.9 50.1-112 112-112z"/></svg>

<svg xmlns="http://www.w3.org/2000/svg" viewBox="0 0 512 512"><path d="M416 64H32V448H231.1c-2.4 10.5-4.2 21.1-5.4 32H32 0V448 64 32H32 416h32V64 231.1c-10.9 2.5-21.6 5.6-32 9.3V64zm-32 48V253.9c-11.1 5.5-21.8 11.7-32 18.6V128H240v82.7c18.6 6.6 32 24.4 32 45.3c0 26.5-21.5 48-48 48s-48-21.5-48-48c0-20.9 13.4-38.7 32-45.3V112 96h16H368h16v16zM240.4 416H80 64V400 112 96H80h64 16v32H144 96V384H253.9c-5.1 10.3-9.7 21-13.5 32zM224 240a16 16 0 1 0 0 32 16 16 0 1 0 0-32zm288 48c-123.7 0-224 100.3-224 224H256c0-141.4 114.6-256 256-256v32zM480 448a32 32 0 1 1 0 64 32 32 0 1 1 0-64zm-96 64H352c0-88.4 71.6-160 160-160v32c-70.7 0-128 57.3-128 128z"/></svg>
